exports/urea-nutrient-prices-per-metric-ton-1960-2030_v1_850x600.svg

<svg xmlns="http://www.w3.org/2000/svg" version="1.1" style="background-color:#fff;-webkit-font-smoothing:antialiased" width="850" height="600" font-family="'Helvetica Neue',Helvetica,Arial,sans-serif" font-size="18" text-rendering="optimizeLegibility"><g class="ChartTab"><g class="HeaderView"><g opacity=".8" transform="matrix(.31 0 0 .31 770 15)"><a xmlns:xlink="http://www.w3.org/1999/xlink" xlink:href="https://ourworldindata.org" target="_blank"><g><path fill="#1B2543" d="M0 0h211.2v130.1H0z"/><path fill="#E63912" d="M0 112.2h211.2v17.9H0z"/><g><path fill="none" d="M1.2 12.3h210.2v99.2H1.2z"/><path fill="#FFF" d="M37.8 32.2c0 12.7-7.7 19.4-17.1 19.4-9.7 0-16.6-7.5-16.6-18.7 0-11.7 7.3-19.3 17.1-19.3 10.1.1 16.6 7.7 16.6 18.6zm-28.6.6c0 7.9 4.3 14.9 11.8 14.9 7.5 0 11.8-6.9 11.8-15.3 0-7.3-3.8-14.9-11.8-14.9-7.9 0-11.8 7.3-11.8 15.3zM62.7 43.8c0 2.7.1 5.1.2 7.2h-4.3l-.3-4.3h-.1c-1.3 2.1-4 4.9-8.8 4.9-4.2 0-9.1-2.3-9.1-11.6V24.6h4.8v14.6c0 5 1.5 8.4 5.9 8.4 3.2 0 5.5-2.2 6.3-4.4.3-.7.4-1.6.4-2.5V24.6h4.8v19.2zM67.3 32.8c0-3.1-.1-5.8-.2-8.2h4.2l.2 5.2h.2c1.2-3.5 4.1-5.8 7.3-5.8.5 0 .9.1 1.4.2v4.5c-.5-.1-1-.2-1.6-.2-3.4 0-5.8 2.6-6.5 6.2-.1.7-.2 1.4-.2 2.2V51h-4.8V32.8zM95.4 51L86 14.2h5l4.4 18.6c1.1 4.6 2.1 9.2 2.7 12.7h.1c.6-3.7 1.8-8 3-12.8l4.9-18.5h5l4.5 18.7c1 4.4 2 8.7 2.6 12.6h.1c.8-4 1.8-8.1 3-12.7l4.9-18.5h4.9L120.6 51h-5L111 31.9c-1.1-4.7-1.9-8.3-2.4-12h-.1c-.7 3.7-1.5 7.3-2.8 12L100.4 51h-5zM154.9 37.6c0 9.8-6.8 14-13.2 14-7.2 0-12.7-5.2-12.7-13.6 0-8.8 5.8-14 13.1-14 7.7 0 12.8 5.5 12.8 13.6zm-21 .3c0 5.8 3.3 10.1 8 10.1 4.6 0 8-4.3 8-10.3 0-4.5-2.2-10.1-7.9-10.1s-8.1 5.2-8.1 10.3zM158.2 32.8c0-3.1-.1-5.8-.2-8.2h4.2l.2 5.2h.2c1.2-3.5 4.1-5.8 7.3-5.8.5 0 .9.1 1.4.2v4.5c-.5-.1-1-.2-1.6-.2-3.4 0-5.8 2.6-6.5 6.2-.1.7-.2 1.4-.2 2.2V51h-4.8V32.8zM173.5 12.3h4.8V51h-4.8V12.3zM206.5 12.3v31.9c0 2.3.1 5 .2 6.8h-4.3l-.2-4.6h-.2c-1.5 2.9-4.7 5.2-9 5.2-6.4 0-11.3-5.4-11.3-13.4-.1-8.8 5.4-14.2 11.9-14.2 4 0 6.8 1.9 8 4h.1V12.3h4.8zm-4.8 23.1c0-.6-.1-1.4-.2-2a7 7 0 00-6.9-5.6c-5 0-7.9 4.4-7.9 10.2 0 5.3 2.6 9.8 7.8 9.8 3.2 0 6.2-2.1 7.1-5.7.2-.7.2-1.3.2-2.1v-4.6zM42.8 64c.1 1.6-1.1 2.9-3.1 2.9-1.7 0-2.9-1.3-2.9-2.9 0-1.7 1.3-3 3-3 1.9 0 3 1.3 3 3zm-5.4 33.8V71.4h4.8v26.4h-4.8zM47.5 78.6c0-2.7-.1-5-.2-7.1h4.3l.3 4.4h.1c1.3-2.5 4.4-5 8.8-5 3.7 0 9.4 2.2 9.4 11.2v15.8h-4.8V82.6c0-4.3-1.6-7.8-6.1-7.8-3.2 0-5.6 2.2-6.5 4.9-.2.6-.3 1.4-.3 2.2v15.9h-4.8V78.6zM84 61.6c2.9-.4 6.3-.8 10.1-.8 6.8 0 11.7 1.6 14.9 4.6 3.3 3 5.2 7.3 5.2 13.2 0 6-1.9 10.9-5.3 14.3-3.4 3.4-9.1 5.3-16.3 5.3-3.4 0-6.2-.2-8.6-.4V61.6zm4.8 32.5c1.2.2 3 .3 4.8.3 10.2 0 15.7-5.7 15.7-15.6.1-8.7-4.9-14.2-14.9-14.2-2.5 0-4.3.2-5.6.5v29zM132.1 97.8l-.4-3.3h-.2a9.79 9.79 0 01-8.1 3.9c-5.4 0-8.1-3.8-8.1-7.6 0-6.4 5.7-9.9 15.9-9.8v-.5c0-2.2-.6-6.1-6-6.1-2.5 0-5 .8-6.9 2l-1.1-3.2c2.2-1.4 5.4-2.3 8.7-2.3 8.1 0 10.1 5.5 10.1 10.8v9.9c0 2.3.1 4.5.4 6.3h-4.3zm-.7-13.4c-5.3-.1-11.2.8-11.2 5.9 0 3.1 2.1 4.6 4.5 4.6 3.4 0 5.6-2.2 6.4-4.4.2-.5.3-1 .3-1.5v-4.6zM146.6 63.9v7.6h6.9v3.7h-6.9v14.2c0 3.3.9 5.1 3.6 5.1 1.3 0 2.2-.2 2.8-.3l.2 3.6c-.9.4-2.4.7-4.3.7-2.2 0-4-.7-5.2-2-1.4-1.4-1.9-3.8-1.9-6.9V75.1h-4.1v-3.7h4.1v-6.3l4.8-1.2zM171.4 97.8l-.4-3.3h-.2a9.79 9.79 0 01-8.1 3.9c-5.4 0-8.1-3.8-8.1-7.6 0-6.4 5.7-9.9 15.9-9.8v-.5c0-2.2-.6-6.1-6-6.1-2.5 0-5 .8-6.9 2l-1.1-3.2c2.2-1.4 5.4-2.3 8.7-2.3 8.1 0 10.1 5.5 10.1 10.8v9.9c0 2.3.1 4.5.4 6.3h-4.3zm-.7-13.4c-5.3-.1-11.2.8-11.2 5.9 0 3.1 2.1 4.6 4.5 4.6 3.4 0 5.6-2.2 6.4-4.4.2-.5.3-1 .3-1.5v-4.6z"/></g></g></a></g><a href="https://ourworldindata.org/grapher/urea-nutrient-prices-per-metric-ton-1960-2030" target="_blank"><text font-size="27" x="15" y="36.6" fill="#555"><tspan x="15" y="36.6">Urea nutrient prices per metric ton, 1960-2030</tspan></text></a><text font-size="14.4" x="15" y="55.5" fill="#666"><tspan x="15" y="55.52">Global urea prices and World Bank projections to 2030, measured in real dollars per metric ton.</tspan></text></g><g class="LineChart"><defs><clipPath id="a"><path d="M46.29 0h830v956.2h-830z"/></clipPath></defs><g class="AxisBoxView"><g class="HorizontalAxis" fill="#666" text-anchor="middle" font-size="16.2"><text x="56.3" y="556.5">1960</text><text x="166.1" y="556.5">1970</text><text x="275.9" y="556.5">1980</text><text x="385.7" y="556.5">1990</text><text x="495.6" y="556.5">2000</text><text x="605.4" y="556.5">2010</text><text x="715.2" y="556.5">2020</text><text x="825" y="556.5">2030</text></g><g class="VerticalAxis" fill="#666" dominant-baseline="middle" text-anchor="end" font-size="16.2"><text x="51.29" y="535.3">$0</text><text x="51.29" y="475.1">$100</text><text x="51.29" y="414.9">$200</text><text x="51.29" y="354.7">$300</text><text x="51.29" y="294.6">$400</text><text x="51.29" y="234.4">$500</text><text x="51.29" y="174.2">$600</text><text x="51.29" y="114">$700</text></g><g class="AxisGridLines"><path stroke="#ccc" d="M56.29 535.3H825"/><path stroke="#ddd" stroke-dasharray="3,2" d="M56.29 475.1H825M56.29 414.9H825M56.29 354.7H825M56.29 294.6H825M56.29 234.4H825M56.29 174.2H825M56.29 114H825"/></g><g class="AxisGridLines" stroke="#ddd" stroke-dasharray="3,2"><path d="M56.3 535.3V78.4M166.1 535.3V78.4M275.9 535.3V78.4M385.7 535.3V78.4M495.6 535.3V78.4M605.4 535.3V78.4M715.2 535.3V78.4M825 535.3V78.4"/></g></g><g clip-path="url(#a)"><g class="Lines"><g class="key-World_0"><path stroke="#e6332e" stroke-linecap="round" d="M56 403l11 2 11 2 11-2 11-54 11-14 11 26 11 31 11 38 11 30 11 26 11 8 11-27 11-60 11-331 11 215 11 126 11-12 11-2 11-12 11-35 11 6 11 49 11 11 11-39 11 40 11 48 11-5 11-22 11 18 11-15 11-15 11 19 11 24 11-33 11-31 11 3 11 39 11 19 11 12 11-27 11 1h11l11-30 11-19 11-26 10 1 11-46 11-93 11 133 11-18 11-55 11 7 11 35 11 10 11 8" fill="none" stroke-width="1.5"/><g fill="#e6332e"><circle cx="56" cy="403" r="2"/><circle cx="67" cy="405" r="2"/><circle cx="78" cy="407" r="2"/><circle cx="89" cy="405" r="2"/><circle cx="100" cy="351" r="2"/><circle cx="111" cy="337" r="2"/><circle cx="122" cy="363" r="2"/><circle cx="133" cy="394" r="2"/><circle cx="144" cy="432" r="2"/><circle cx="155" cy="462" r="2"/><circle cx="166" cy="488" r="2"/><circle cx="177" cy="496" r="2"/><circle cx="188" cy="469" r="2"/><circle cx="199" cy="409" r="2"/><circle cx="210" cy="78" r="2"/><circle cx="221" cy="293" r="2"/><circle cx="232" cy="419" r="2"/><circle cx="243" cy="407" r="2"/><circle cx="254" cy="405" r="2"/><circle cx="265" cy="393" r="2"/><circle cx="276" cy="358" r="2"/><circle cx="287" cy="364" r="2"/><circle cx="298" cy="413" r="2"/><circle cx="309" cy="424" r="2"/><circle cx="320" cy="385" r="2"/><circle cx="331" cy="425" r="2"/><circle cx="342" cy="473" r="2"/><circle cx="353" cy="468" r="2"/><circle cx="364" cy="446" r="2"/><circle cx="375" cy="464" r="2"/><circle cx="386" cy="449" r="2"/><circle cx="397" cy="434" r="2"/><circle cx="408" cy="453" r="2"/><circle cx="419" cy="477" r="2"/><circle cx="430" cy="444" r="2"/><circle cx="441" cy="413" r="2"/><circle cx="452" cy="416" r="2"/><circle cx="463" cy="455" r="2"/><circle cx="474" cy="474" r="2"/><circle cx="485" cy="486" r="2"/><circle cx="496" cy="459" r="2"/><circle cx="507" cy="460" r="2"/><circle cx="518" cy="460" r="2"/><circle cx="529" cy="430" r="2"/><circle cx="540" cy="411" r="2"/><circle cx="551" cy="385" r="2"/><circle cx="561" cy="386" r="2"/><circle cx="572" cy="340" r="2"/><circle cx="583" cy="247" r="2"/><circle cx="594" cy="380" r="2"/><circle cx="605" cy="362" r="2"/><circle cx="616" cy="307" r="2"/><circle cx="627" cy="314" r="2"/><circle cx="638" cy="349" r="2"/><circle cx="649" cy="359" r="2"/><circle cx="660" cy="367" r="2"/></g></g><g class="key-World_1"><path stroke="#e6332e" stroke-linecap="round" d="M660 367l11 40 11-18 11 1h33l11-1h11l11-1h22l11-1h22l11-1" fill="none" stroke-width="1.5" stroke-dasharray="1,4"/></g></g></g></g><g class="SourcesFooter" fill="#777"><g class="clickable" fill="#777"><text font-size="12.6" x="15" y="581.6"><tspan x="15" y="581.58">Source: Fertilizer prices - World Bank (2017)</tspan></text></g><text font-size="12.6" x="512.2" y="581.6"><tspan x="512.19" y="581.58"><a target="_blank" href="https://ourworldindata.org/fertilizer-and-pesticides/" fill="#777">OurWorldInData.org/fertilizer-and-pesticides/</a> • <a href="http://creativecommons.org/licenses/by-sa/4.0/deed.en_US" target="_blank" fill="#777">CC BY-SA</a></tspan></text></g></g></svg>

<svg xmlns="http://www.w3.org/2000/svg" version="1.1" style="font-family: 'Helvetica Neue', Helvetica, Arial, sans-serif; font-size: 18px; background-color: white; text-rendering: optimizeLegibility; -webkit-font-smoothing: antialiased;" width="850" height="600"><g class="ChartTab"><g class="HeaderView"><g opacity="0.8" transform="translate(770, 15) scale(0.31)"><a xmlns:xlink="http://www.w3.org/1999/xlink" xlink:href="https://ourworldindata.org" target="_blank"><g><rect x="0" y="0" fill="#1B2543" width="211.2" height="130.1"/><rect x="0" y="112.2" fill="#E63912" width="211.2" height="17.9"/><g><rect x="1.2" y="12.3" fill="none" width="210.2" height="99.2"/><path fill="#FFFFFF" d="M37.8,32.2c0,12.7-7.7,19.4-17.1,19.4c-9.7,0-16.6-7.5-16.6-18.7c0-11.7,7.3-19.3,17.1-19.3 C31.3,13.7,37.8,21.3,37.8,32.2z M9.2,32.8c0,7.9,4.3,14.9,11.8,14.9c7.5,0,11.8-6.9,11.8-15.3c0-7.3-3.8-14.9-11.8-14.9 C13.1,17.5,9.2,24.8,9.2,32.8z"/><path fill="#FFFFFF" d="M62.7,43.8c0,2.7,0.1,5.1,0.2,7.2h-4.3l-0.3-4.3h-0.1c-1.3,2.1-4,4.9-8.8,4.9c-4.2,0-9.1-2.3-9.1-11.6 V24.6h4.8v14.6c0,5,1.5,8.4,5.9,8.4c3.2,0,5.5-2.2,6.3-4.4c0.3-0.7,0.4-1.6,0.4-2.5V24.6h4.8V43.8z"/><path fill="#FFFFFF" d="M67.3,32.8c0-3.1-0.1-5.8-0.2-8.2h4.2l0.2,5.2h0.2c1.2-3.5,4.1-5.8,7.3-5.8c0.5,0,0.9,0.1,1.4,0.2v4.5 c-0.5-0.1-1-0.2-1.6-0.2c-3.4,0-5.8,2.6-6.5,6.2c-0.1,0.7-0.2,1.4-0.2,2.2V51h-4.8V32.8z"/><path fill="#FFFFFF" d="M95.4,51l-9.4-36.8h5l4.4,18.6c1.1,4.6,2.1,9.2,2.7,12.7h0.1c0.6-3.7,1.8-8,3-12.8l4.9-18.5h5l4.5,18.7 c1,4.4,2,8.7,2.6,12.6h0.1c0.8-4,1.8-8.1,3-12.7l4.9-18.5h4.9L120.6,51h-5L111,31.9c-1.1-4.7-1.9-8.3-2.4-12h-0.1 c-0.7,3.7-1.5,7.3-2.8,12L100.4,51H95.4z"/><path fill="#FFFFFF" d="M154.9,37.6c0,9.8-6.8,14-13.2,14c-7.2,0-12.7-5.2-12.7-13.6c0-8.8,5.8-14,13.1-14 C149.8,24,154.9,29.5,154.9,37.6z M133.9,37.9c0,5.8,3.3,10.1,8,10.1c4.6,0,8-4.3,8-10.3c0-4.5-2.2-10.1-7.9-10.1 C136.3,27.6,133.9,32.8,133.9,37.9z"/><path fill="#FFFFFF" d="M158.2,32.8c0-3.1-0.1-5.8-0.2-8.2h4.2l0.2,5.2h0.2c1.2-3.5,4.1-5.8,7.3-5.8c0.5,0,0.9,0.1,1.4,0.2v4.5 c-0.5-0.1-1-0.2-1.6-0.2c-3.4,0-5.8,2.6-6.5,6.2c-0.1,0.7-0.2,1.4-0.2,2.2V51h-4.8V32.8z"/><path fill="#FFFFFF" d="M173.5,12.3h4.8V51h-4.8V12.3z"/><path fill="#FFFFFF" d="M206.5,12.3v31.9c0,2.3,0.1,5,0.2,6.8h-4.3l-0.2-4.6H202c-1.5,2.9-4.7,5.2-9,5.2 c-6.4,0-11.3-5.4-11.3-13.4c-0.1-8.8,5.4-14.2,11.9-14.2c4,0,6.8,1.9,8,4h0.1V12.3H206.5z M201.7,35.4c0-0.6-0.1-1.4-0.2-2 c-0.7-3.1-3.3-5.6-6.9-5.6c-5,0-7.9,4.4-7.9,10.2c0,5.3,2.6,9.8,7.8,9.8c3.2,0,6.2-2.1,7.1-5.7c0.2-0.7,0.2-1.3,0.2-2.1V35.4z"/><path fill="#FFFFFF" d="M42.8,64c0.1,1.6-1.1,2.9-3.1,2.9c-1.7,0-2.9-1.3-2.9-2.9c0-1.7,1.3-3,3-3C41.7,61,42.8,62.3,42.8,64z M37.4,97.8V71.4h4.8v26.4H37.4z"/><path fill="#FFFFFF" d="M47.5,78.6c0-2.7-0.1-5-0.2-7.1h4.3l0.3,4.4h0.1c1.3-2.5,4.4-5,8.8-5c3.7,0,9.4,2.2,9.4,11.2v15.8h-4.8 V82.6c0-4.3-1.6-7.8-6.1-7.8c-3.2,0-5.6,2.2-6.5,4.9c-0.2,0.6-0.3,1.4-0.3,2.2v15.9h-4.8V78.6z"/><path fill="#FFFFFF" d="M84,61.6c2.9-0.4,6.3-0.8,10.1-0.8c6.8,0,11.7,1.6,14.9,4.6c3.3,3,5.2,7.3,5.2,13.2c0,6-1.9,10.9-5.3,14.3 c-3.4,3.4-9.1,5.3-16.3,5.3c-3.4,0-6.2-0.2-8.6-0.4V61.6z M88.8,94.1c1.2,0.2,3,0.3,4.8,0.3c10.2,0,15.7-5.7,15.7-15.6 c0.1-8.7-4.9-14.2-14.9-14.2c-2.5,0-4.3,0.2-5.6,0.5V94.1z"/><path fill="#FFFFFF" d="M132.1,97.8l-0.4-3.3h-0.2c-1.5,2.1-4.3,3.9-8.1,3.9c-5.4,0-8.1-3.8-8.1-7.6c0-6.4,5.7-9.9,15.9-9.8v-0.5 c0-2.2-0.6-6.1-6-6.1c-2.5,0-5,0.8-6.9,2l-1.1-3.2c2.2-1.4,5.4-2.3,8.7-2.3c8.1,0,10.1,5.5,10.1,10.8v9.9c0,2.3,0.1,4.5,0.4,6.3 H132.1z M131.4,84.4c-5.3-0.1-11.2,0.8-11.2,5.9c0,3.1,2.1,4.6,4.5,4.6c3.4,0,5.6-2.2,6.4-4.4c0.2-0.5,0.3-1,0.3-1.5V84.4z"/><path fill="#FFFFFF" d="M146.6,63.9v7.6h6.9v3.7h-6.9v14.2c0,3.3,0.9,5.1,3.6,5.1c1.3,0,2.2-0.2,2.8-0.3l0.2,3.6 c-0.9,0.4-2.4,0.7-4.3,0.7c-2.2,0-4-0.7-5.2-2c-1.4-1.4-1.9-3.8-1.9-6.9V75.1h-4.1v-3.7h4.1v-6.3L146.6,63.9z"/><path fill="#FFFFFF" d="M171.4,97.8l-0.4-3.3h-0.2c-1.5,2.1-4.3,3.9-8.1,3.9c-5.4,0-8.1-3.8-8.1-7.6c0-6.4,5.7-9.9,15.9-9.8v-0.5 c0-2.2-0.6-6.1-6-6.1c-2.5,0-5,0.8-6.9,2l-1.1-3.2c2.2-1.4,5.4-2.3,8.7-2.3c8.1,0,10.1,5.5,10.1,10.8v9.9c0,2.3,0.1,4.5,0.4,6.3 H171.4z M170.7,84.4c-5.3-0.1-11.2,0.8-11.2,5.9c0,3.1,2.1,4.6,4.5,4.6c3.4,0,5.6-2.2,6.4-4.4c0.2-0.5,0.3-1,0.3-1.5V84.4z"/></g></g></a></g><a href="https://ourworldindata.org/grapher/urea-nutrient-prices-per-metric-ton-1960-2030" target="_blank"><text font-size="27.00" x="15.0" y="36.6" fill="#555"><tspan x="15" y="36.6">Urea nutrient prices per metric ton, 1960-2030</tspan></text></a><text font-size="14.40" x="15.0" y="55.5" fill="#666"><tspan x="15" y="55.519999999999996">Global urea prices and World Bank projections to 2030, measured in real dollars per metric ton.</tspan></text></g><g class="LineChart"><defs><clipPath id="boundsClip-267"><rect x="46.288000000000004" y="0" width="830" height="956.2"></rect></clipPath></defs><g class="AxisBoxView"><g class="HorizontalAxis"><text x="56.3" y="556.5" fill="#666" text-anchor="middle" font-size="16.2">1960</text><text x="166.1" y="556.5" fill="#666" text-anchor="middle" font-size="16.2">1970</text><text x="275.9" y="556.5" fill="#666" text-anchor="middle" font-size="16.2">1980</text><text x="385.7" y="556.5" fill="#666" text-anchor="middle" font-size="16.2">1990</text><text x="495.6" y="556.5" fill="#666" text-anchor="middle" font-size="16.2">2000</text><text x="605.4" y="556.5" fill="#666" text-anchor="middle" font-size="16.2">2010</text><text x="715.2" y="556.5" fill="#666" text-anchor="middle" font-size="16.2">2020</text><text x="825" y="556.5" fill="#666" text-anchor="middle" font-size="16.2">2030</text></g><g class="VerticalAxis"><text x="51.29" y="535.3" fill="#666" dominant-baseline="middle" text-anchor="end" font-size="16.2">$0</text><text x="51.29" y="475.1" fill="#666" dominant-baseline="middle" text-anchor="end" font-size="16.2">$100</text><text x="51.29" y="414.9" fill="#666" dominant-baseline="middle" text-anchor="end" font-size="16.2">$200</text><text x="51.29" y="354.7" fill="#666" dominant-baseline="middle" text-anchor="end" font-size="16.2">$300</text><text x="51.29" y="294.6" fill="#666" dominant-baseline="middle" text-anchor="end" font-size="16.2">$400</text><text x="51.29" y="234.4" fill="#666" dominant-baseline="middle" text-anchor="end" font-size="16.2">$500</text><text x="51.29" y="174.2" fill="#666" dominant-baseline="middle" text-anchor="end" font-size="16.2">$600</text><text x="51.29" y="114" fill="#666" dominant-baseline="middle" text-anchor="end" font-size="16.2">$700</text></g><g class="AxisGridLines"><line x1="56.29" y1="535.3" x2="825.00" y2="535.3" stroke="#ccc"></line><line x1="56.29" y1="475.1" x2="825.00" y2="475.1" stroke="#ddd" stroke-dasharray="3,2"></line><line x1="56.29" y1="414.9" x2="825.00" y2="414.9" stroke="#ddd" stroke-dasharray="3,2"></line><line x1="56.29" y1="354.7" x2="825.00" y2="354.7" stroke="#ddd" stroke-dasharray="3,2"></line><line x1="56.29" y1="294.6" x2="825.00" y2="294.6" stroke="#ddd" stroke-dasharray="3,2"></line><line x1="56.29" y1="234.4" x2="825.00" y2="234.4" stroke="#ddd" stroke-dasharray="3,2"></line><line x1="56.29" y1="174.2" x2="825.00" y2="174.2" stroke="#ddd" stroke-dasharray="3,2"></line><line x1="56.29" y1="114" x2="825.00" y2="114" stroke="#ddd" stroke-dasharray="3,2"></line></g><g class="AxisGridLines"><line x1="56.3" y1="535.30" x2="56.3" y2="78.40" stroke="#ddd" stroke-dasharray="3,2"></line><line x1="166.1" y1="535.30" x2="166.1" y2="78.40" stroke="#ddd" stroke-dasharray="3,2"></line><line x1="275.9" y1="535.30" x2="275.9" y2="78.40" stroke="#ddd" stroke-dasharray="3,2"></line><line x1="385.7" y1="535.30" x2="385.7" y2="78.40" stroke="#ddd" stroke-dasharray="3,2"></line><line x1="495.6" y1="535.30" x2="495.6" y2="78.40" stroke="#ddd" stroke-dasharray="3,2"></line><line x1="605.4" y1="535.30" x2="605.4" y2="78.40" stroke="#ddd" stroke-dasharray="3,2"></line><line x1="715.2" y1="535.30" x2="715.2" y2="78.40" stroke="#ddd" stroke-dasharray="3,2"></line><line x1="825" y1="535.30" x2="825" y2="78.40" stroke="#ddd" stroke-dasharray="3,2"></line></g></g><g clip-path="url(#boundsClip-267)"><g class="Lines"><rect x="56" y="78" width="769" height="457" fill="rgba(255,255,255,0)" opacity="0"></rect><g class="key-World_0"><path stroke="#e6332e" stroke-linecap="round" d="M56 403L67 405L78 407L89 405L100 351L111 337L122 363L133 394L144 432L155 462L166 488L177 496L188 469L199 409L210 78L221 293L232 419L243 407L254 405L265 393L276 358L287 364L298 413L309 424L320 385L331 425L342 473L353 468L364 446L375 464L386 449L397 434L408 453L419 477L430 444L441 413L452 416L463 455L474 474L485 486L496 459L507 460L518 460L529 430L540 411L551 385L561 386L572 340L583 247L594 380L605 362L616 307L627 314L638 349L649 359L660 367" fill="none" stroke-width="1.5"></path><g fill="#e6332e"><circle cx="56" cy="403" r="2"></circle><circle cx="67" cy="405" r="2"></circle><circle cx="78" cy="407" r="2"></circle><circle cx="89" cy="405" r="2"></circle><circle cx="100" cy="351" r="2"></circle><circle cx="111" cy="337" r="2"></circle><circle cx="122" cy="363" r="2"></circle><circle cx="133" cy="394" r="2"></circle><circle cx="144" cy="432" r="2"></circle><circle cx="155" cy="462" r="2"></circle><circle cx="166" cy="488" r="2"></circle><circle cx="177" cy="496" r="2"></circle><circle cx="188" cy="469" r="2"></circle><circle cx="199" cy="409" r="2"></circle><circle cx="210" cy="78" r="2"></circle><circle cx="221" cy="293" r="2"></circle><circle cx="232" cy="419" r="2"></circle><circle cx="243" cy="407" r="2"></circle><circle cx="254" cy="405" r="2"></circle><circle cx="265" cy="393" r="2"></circle><circle cx="276" cy="358" r="2"></circle><circle cx="287" cy="364" r="2"></circle><circle cx="298" cy="413" r="2"></circle><circle cx="309" cy="424" r="2"></circle><circle cx="320" cy="385" r="2"></circle><circle cx="331" cy="425" r="2"></circle><circle cx="342" cy="473" r="2"></circle><circle cx="353" cy="468" r="2"></circle><circle cx="364" cy="446" r="2"></circle><circle cx="375" cy="464" r="2"></circle><circle cx="386" cy="449" r="2"></circle><circle cx="397" cy="434" r="2"></circle><circle cx="408" cy="453" r="2"></circle><circle cx="419" cy="477" r="2"></circle><circle cx="430" cy="444" r="2"></circle><circle cx="441" cy="413" r="2"></circle><circle cx="452" cy="416" r="2"></circle><circle cx="463" cy="455" r="2"></circle><circle cx="474" cy="474" r="2"></circle><circle cx="485" cy="486" r="2"></circle><circle cx="496" cy="459" r="2"></circle><circle cx="507" cy="460" r="2"></circle><circle cx="518" cy="460" r="2"></circle><circle cx="529" cy="430" r="2"></circle><circle cx="540" cy="411" r="2"></circle><circle cx="551" cy="385" r="2"></circle><circle cx="561" cy="386" r="2"></circle><circle cx="572" cy="340" r="2"></circle><circle cx="583" cy="247" r="2"></circle><circle cx="594" cy="380" r="2"></circle><circle cx="605" cy="362" r="2"></circle><circle cx="616" cy="307" r="2"></circle><circle cx="627" cy="314" r="2"></circle><circle cx="638" cy="349" r="2"></circle><circle cx="649" cy="359" r="2"></circle><circle cx="660" cy="367" r="2"></circle></g></g><g class="key-World_1"><path stroke="#e6332e" stroke-linecap="round" d="M660 367L671 407L682 389L693 390L704 390L715 390L726 390L737 389L748 389L759 388L770 388L781 388L792 387L803 387L814 387L825 386" fill="none" stroke-width="1.5" stroke-dasharray="1,4"></path></g></g></g></g><g style="fill: #777;" class="SourcesFooter"><g style="fill: #777;" class="clickable"><text font-size="12.60" x="15.0" y="581.6"><tspan x="15" y="581.58">Source: Fertilizer prices - World Bank (2017)</tspan></text></g><text font-size="12.60" x="512.2" y="581.6"><tspan x="512.188" y="581.58"><a target='_blank' style='fill: #777;' href='https://ourworldindata.org/fertilizer-and-pesticides/'>OurWorldInData.org/fertilizer-and-pesticides/</a> • <a style="fill: #777;" href="http://creativecommons.org/licenses/by-sa/4.0/deed.en_US" target="_blank">CC BY-SA</a></tspan></text></g></g></svg>
